X: 2275
T: The GROWLING OLD WOMAN
R: Irish Jig.
%R: jig
B: James Kerr "Merry Melodies" v.2 p.30 #275
Z: 2016 John Chambers <jc:trillian.mit.edu>
M: 6/8
L: 1/8
K: Bb
uF |\
Bcd dcd | B3 uG2uB | ABc cAc | A3 uF2uA |\
Bcd cdc | dfb bab | gfe dcd | B3 G2 :|
|:\
uf |\
fgf dBd | f3 uB2uf | fgf edc | B3 uG2uf |\
fgf edc | Bdf bab | gfe dcd | B3 G2 :|

%%sep 1 1 500
%%sep 1 1 500

